X:1
T:Valse Triste
C:abc file by Bernard Loffet
L:1/8
Q:240
M:3/4
K:C
|:[E2A,2]A,2[F2A,2]|[E2A,2]A,2[F2A,2]|[E2A,2]A,2A,2|[E2A,2][F2A,2][E2A,2]|[D2G,2]G,2[E2G,2]|[D2G,2]G,2[E2G,2]|[D2G,2]G,2G,2|[D2G,2][E2G,2][D2G,2]|[C2F,2]F,2[D2F,2]| \
[C2F,2]F,2[D2F,2]|[C2F,2]F,2F,2|[C2F,2][D2F,2][C2F,2]|[B,2G,2]G,2G,2|G,2[C2G,2][D2G,2]|[B,2E,2]E,2E,2|[B,2E,2][C2E,2][D2E,2]|[E2A,2]A,2A,2|[F2A,2][E2A,2][F2A,2]| \
[A2A,2]A,2A,2|[E2A,2][A2A,2][E2A,2]|[D2G,2]G,2G,2|[E2G,2][D2G,2][E2G,2]|[B2G,2]G,2G,2|[D2G,2][B2G,2][D2G,2]|[C2F,2]F,2F,2|[D2F,2][C2F,2][D2F,2]|[A2F,2]F,2F,2| \
[A2F,2][B2F,2][c2F,2]|[B2G,2]G,2G,2|[B2G,2][c2G,2][d2G,2]|[B2E,2]E,2E,2|[B,2E,2][C2E,2][D2E,2]:|z6| \
Z:Created with TablEdit http://www.tabledit.com/
